X:1
T:Madonna io non lo so perche lo fai
T:Adriaan Willaert
T:Madonna io non lo so perche lo fai
T:Villanella
C:Adriaan Willaert
%%score [ 1 2 3 4 ]
L:1/8
Q:1/4=120
M:2/2
K:G
V:1 treble nm="Soprano" snm="S"
V:2 treble nm="Alto" snm="A"
V:3 treble-8 nm="Tenor" snm="T"
V:4 bass nm="Bass" snm="B"
V:1
 z4 B4 | B2 d2 c2 c2 | B4 B2 c2 | A2 A4 ^G2 | z2 A4 B2- | B2 G2 c2 c2 | B2 B4 c2 | A2 A4 ^G2 | %8
w: Ma-|don- naßio non lo|so per- ché|lo fa- i,|Ma- don-|* naßio non lo|so per- ché|lo fa- i,|
w: O|dio fam- me ne|scir da tan-|ti gua- i,|O dio|* fam- me ne|scir da tan-|ti gua- i,|
w: O|mo- raßo camp’ hor-|mai non me|ne cu- ro,|O mo-|* raßo camp’ hor-|mai non me|ne cu- ro,|
 z2 A2 A2 B2 | c2 c2 A4 | ^G2 G2 A2 E2 | E2 A2 F4 | G2 G2 E2 E2- | E2 ^D2 E4 | z2 E2 A2 G2 | %15
w: Che me ti|mo- strißin tut-|to, che me ti|mo- strißin tut-|to scor- ruc- cia-|* * ta,|Che me ti|
w: ca non gin|cam- pa- rag-|gio, ca non gin|cam- pa- rag-|gioßun’ al- tra fia-|* * ta.|ca non gin|
w: sto mon- do|la- tr’ße fat-|to, sto mon- do|la- tr’ße fat-|toßa chißha ven- tu-|* * ra.|sto mon- do|
 c2 c2 A4 | ^G2 G2 A2 E2 | E2 A2 F4 | G2 G2 E2 E2- | E2 ^D2 E4 | z2 B4 c2 | B2 B4 A2 | B4 A2 A2 | %23
w: mo- strißin tut-|to, che me ti|mo- strißin tut-|to scor- ruc- cia-|* * ta,|Per- ché|sei co- sìßin|gra- ta, se|
w: cam- pa- rag-|gio, ca non gin|cam- pa- rag-|gioßun’ al- tra fia-|* * ta.||||
w: la- tr’ße fat-|to, sto mon- do|la- tr’ße fat-|toßa chißha ven- tu-|* * ra.||||
 F2 F2 F2 F2 | F4 G4 | z2 G2 F4 | z2 B2 A4 | z2 G2 A2 A2 | c4 c2 B2- | BA A4 ^G2 | A2 c4 B2 | %31
w: sai per te son|cie- co,|do- lor,|do- lor,|do- lor sta|sem- pre me-||co. Per- ché|
w: ||||||||
w: ||||||||
 B2 B4 A2 | B4 A2 A2 | F2 F2 F2 F2 | F4 G4 | z2 G2 F4 | z2 B2 A4 | z2 G2 A2 A2 | c4 c2 B2- | %39
w: sei co- sìßin|gra- ta, se|sai per te son|cie- co,|do- lor,|do- lor,|do- lor sta|sem- pre me-|
w: ||||||||
w: ||||||||
 BA A4 ^G2 | A8 |] %41
w: |co.|
w: ||
w: ||
V:2
 z4 G4 | D2 G2 G2 G2 | G2 G2 G2 G2 | =F4 E4 | z2 F4 D2- | D2 E2 G2 G2 | G2 G2 G2 G2 | =F4 E4 | %8
w: Ma-|don- naßio non lo|so per- ché lo|fa- i,|Ma- don-|* naßio non lo|so per- ché lo|fa- i,|
w: O|dio fam- me ne|scir da tan- ti|gua- i,|O dio|* fam- me ne|scir da tan- ti|gua- i,|
w: O|mo- raßo camp’ hor-|mai non me ne|cu- ro,|O mo-|* raßo camp’ hor-|mai non me ne|cu- ro,|
 z2 E2 E2 G2 | G2 A2 =F4 | E4 z2 C2 | A,2 E2 D2 D2 | B,2 C2 C2 C2 | B,4 B,4 | z2 A,2 E2 E2 | %15
w: Che me ti|mo- strißin tut-|to, che|me ti mo- strißin|tut- to scor- ruc-|cia- ta,|Che me ti|
w: ca non gin|cam- pa- rag-|gio, ca|non gin cam- pa-|rag- gioßun’ al- tra|fia- ta.|ca non gin|
w: sto mon- do|la- tr’ße fat-|to, sto|mon- do la- tr’ße|fat- toßa chißha ven-|tu- ra.|sto mon- do|
 G2 A2 =F4 | E2 E2 C2 C2 | A,2 E2 D4 | B,2 C4 C2 | B,4 B,4 | G,4 G4- | G2 G2 G2 E2 | G4 F4 | %23
w: mo- strißin tut-|to, che me ti|mo- strißin tut-|to scor- ruc-|cia- ta,|Per- ché|* sei co- sìßin|gra- ta,|
w: cam- pa- rag-|gio, ca non gin|cam- pa- rag-|gioßun’ al- tra|fia- ta.||||
w: la- tr’ße fat-|to, sto mon- do|la- tr’ße fat-|toßa chißha ven-|tu- ra.||||
 z2 A2 A2 D2 | D2 D2 E4 | D4 z2 D2 | B,4 z2 E2 | E4 z2 F2 | G2 A2 G2 G2 | =F4 E4 | z2 E4 G2- | %31
w: se sai per|te son cie-|co, do-|lor, do-|lor, do-|lor sta sem- pre|me- co.|Per- ché|
w: ||||||||
w: ||||||||
 G2 G2 G2 E2 | G4 F4 | z2 A2 A2 D2 | D2 D2 E4 | D4 z2 D2 | B,4 z2 E2 | E4 z2 F2 | G2 A2 G4 | %39
w: * sei co- sìßin|gra- ta,|se sai per|te son cie-|co, do-|lor, do-|lor, do-|lor sta sem-|
w: ||||||||
w: ||||||||
 =F4 E4 | E8 |] %41
w: pre me-|co.|
w: ||
w: ||
V:3
 z4 d4 | B2 B2 e2 e2 | d4 z2 e2 | c2 d2 B4 | A4 d4 | B2 B2 e2 e2 | d4 z2 e2 | c2 d2 B4 | %8
w: Ma-|don- naßio non lo|so per-|ché lo fa-|i, Ma-|don- naßio non lo|so per-|ché lo fa-|
w: O|dio fam- me ne|scir da|tan- ti gua-|i, O|dio fam- me ne|scir da|tan- ti gua-|
w: O|mo- raßo camp’ hor-|mai non|me ne cu-|ro, O|mo- raßo camp’ hor-|mai non|me ne cu-|
 A2 c2 c2 B2 | e2 e2 d4 | B4 z2 A2 | c2 c2 B2 A2 | G2 E2 G2 A2 | F4 E4 | z2 c2 c2 B2 | e2 e2 d4 | %16
w: i, Che me ti|mo- strißin tut-|to, che|me ti mo- strißin|tut- to scor- ruc-|cia- ta,|Che me ti|mo- strißin tut-|
w: i, ca non gin|cam- pa- rag-|gio, ca|non gin cam- pa-|rag- gioßun’ al- tra|fia- ta.|ca non gin|cam- pa- rag-|
w: ro, sto mon- do|la- tr’ße fat-|to, sto|mon- do la- tr’ße|fat- toßa chißha ven-|tu- ra.|sto mon- do|la- tr’ße fat-|
 B4 z2 A2 | c2 c2 B2 A2 | G2 E2 G2 A2 | F4 E4 | z4 e4 | d2 d2 e2 c2 | d4 d4 | z2 A2 A2 A2 | %24
w: to, che|me ti mo- strißin|tut- to scor- ruc-|cia- ta,|Per-|ché sei co- sìßin|gra- ta,|se sai per|
w: gio, ca|non gin cam- pa-|rag- gioßun’ al- tra|fia- ta.|||||
w: to, sto|mon- do la- tr’ße|fat- toßa chißha ven-|tu- ra.|||||
 A2 A2 c4 | B4 z2 A2 | G4 z2 c2 | B4 z2 d2 | e6 e2 | c2 d2 B4 | A4 e4 | d2 d2 e2 c2 | d4 d4 | %33
w: te son cie-|co, do-|lor, do-|lor, do-|lor sta|sem- pre me-|co. Per-|ché sei co- sìßin|gra- ta,|
w: |||||||||
w: |||||||||
 z2 A2 A2 A2 | A2 A2 c4 | B4 z2 A2 | G4 z2 c2 | B4 z2 d2 | e6 e2 | c2 d2 B4 | A8 |] %41
w: se sai per|te son cie-|co, do-|lor, do-|lor, do-|lor sta|sem- pre me-|co.|
w: ||||||||
w: ||||||||
V:4
 z4 G,4 | G,2 G,2 C,2 C,2 | G,4 E,4 | =F,2 D,2 E,4 | A,,2 D,4 G,2- | G,2 E,2 C,2 C,2 | G,4 E,4 | %7
w: Ma-|don- naßio non lo|so per-|ché lo fa-|i, Ma- don-|* naßio non lo|so per-|
w: O|dio fam- me ne|scir da|tan- ti gua-|i, O dio|* fam- me ne|scir da|
w: O|mo- raßo camp’ hor-|mai non|me ne cu-|ro, O mo-|* raßo camp’ hor-|mai non|
 =F,2 D,2 E,4 | A,,2 A,,2 A,,2 E,2 | C,2 A,,2 D,4 | E,4 z2 A,,2 | A,,2 A,,2 B,,2 D,2 | %12
w: ché lo fa-|i, Che me ti|mo- strißin tut-|to, che|me ti mo- strißin|
w: tan- ti gua-|i, ca non gin|cam- pa- rag-|gio, ca|non gin cam- pa-|
w: me ne cu-|ro, sto mon- do|la- tr’ße fat-|to, sto|mon- do la- tr’ße|
 E,2 C,2 C,2 A,,2 | B,,4 E,4 | z2 A,,2 A,,2 E,2 | C,2 A,,2 D,4 | E,4 z2 A,,2 | A,,2 A,,2 B,,2 D,2 | %18
w: tut- to scor- ruc-|cia- ta,|Che me ti|mo- strißin tut-|to, che|me ti mo- strißin|
w: rag- gioßun’ al- tra|fia- ta.|ca non gin|cam- pa- rag-|gio, ca|non gin cam- pa-|
w: fat- toßa chißha ven-|tu- ra.|sto mon- do|la- tr’ße fat-|to, sto|mon- do la- tr’ße|
 E,2 C,2 C,2 A,,2 | B,,4 E,4- | E,4 z2 C,2 | G,2 G,2 E,2 A,2 | G,4 D,4 | z2 D,2 D,2 D,2 | %24
w: tut- to scor- ruc-|cia- ta,|* Per-|ché sei co- sìßin|gra- ta,|se sai per|
w: rag- gioßun’ al- tra|fia- ta.|||||
w: fat- toßa chißha ven-|tu- ra.|||||
 D,2 D,2 C,4 | G,,4 z2 D,2 | E,4 z2 A,,2 | E,4 z2 D,2 | C,2 A,,B,, C,D, E,2 | =F,2 D,2 E,4 | %30
w: te son cie-|co, do-|lor, do-|lor, do-|lor sta * * * *|sem- pre me-|
w: ||||||
w: ||||||
 A,,4 z2 E,2 | G,2 G,2 E,2 A,2 | G,4 D,4 | z2 D,2 D,2 D,2 | D,2 D,2 C,4 | G,,4 z2 D,2 | %36
w: co. Per-|ché sei co- sìßin|gra- ta,|se sai per|te son cie-|co, do-|
w: ||||||
w: ||||||
 E,4 z2 A,,2 | E,4 z2 D,2 | C,2 A,,B,, C,D, E,2 | =F,2 D,2 E,4 | A,,8 |] %41
w: lor, do-|lor, do-|lor sta * * * *|sem- pre me-|co.|
w: |||||
w: |||||

